share/icons/Flat-Remix-Blue-Dark/mimetypes/scalable/application-x-perl.svg

<svg width="36pt" height="36pt" version="1.1" viewBox="0 0 36 36" xmlns="http://www.w3.org/2000/svg"><defs><filter id="a" x="-.192" y="-.192" width="1.384" height="1.384" color-interpolation-filters="sRGB"><feGaussianBlur stdDeviation="0.67843748"/></filter></defs><path d="m7.3477 3.9022c-0.67188 0-1.3047 0.63281-1.3047 1.3047v27.391c0 0.63281 0.67188 1.3047 1.3047 1.3047h20.871c0.63281 0 1.3047-0.67188 1.3047-1.3047v-20.215l-8.4805-8.4805z" opacity=".3"/><path d="m7.3477 3.1523c-0.67188 0-1.3047 0.63281-1.3047 1.3047v27.391c0 0.63281 0.67188 1.3047 1.3047 1.3047h20.871c0.63281 0 1.3047-0.67188 1.3047-1.3047v-20.215l-8.4805-8.4805z" fill="#4ec7cd"/><path d="m20.668 3.5272 8.4805 8.4805h-7.1758c-0.63281 0-1.3047-0.67187-1.3047-1.3047z" filter="url(#a)" opacity=".2"/><path d="m21.043 3.1523 8.4805 8.4805h-7.1758c-0.63281 0-1.3047-0.67187-1.3047-1.3047z" fill="#64ced3"/><path d="m19.75 25.746c-0.375-0.050782 0.0625-0.42578 0.1875-0.50391 0.23828-0.14063 0.43359-0.30469 0.58203-0.57422 0.23828-0.43359 0.34375-1.0039 0.44531-1.5039 0.066406-0.33594 0.13281-0.53125-0.046875-0.81641-0.17578-0.28516 0.125-0.51953-0.0625-0.82031-0.31641-0.50391-0.44922-1.1719-0.76172-1.6719-0.085938-0.14062-0.054688-0.27344-0.18359-0.28516-0.058594-0.007812-0.21875 0.13672-0.26953 0.17969-0.15625 0.125-0.34375 0.18359-0.49609 0.30469-0.074219 0.0625-0.21875 0.015624-0.28516 0.074218-0.17969 0.17188-0.13672 0.70312-0.11719 0.97266 0.027343 0.38672 0.28516 0.50781 0.28516 0.87891 0 0.44922-0.070313 0.75781 0.050781 1.2148 0.066406 0.26563 0.23438 0.56641 0.26172 0.83594 0.023437 0.21094-0.007813 0.20703-0.0625 0.40625-0.058594 0.24219-0.085938 0.45703-0.27734 0.5625-0.10938 0.0625-0.60547 0.089844-0.66797-0.058594-0.12109-0.28906 0.33984-0.38672 0.41797-0.5625 0.16797-0.37891-0.17969-1.3555-0.33203-1.6836-0.082031-0.17969-0.23047-0.32031-0.29297-0.5-0.078125-0.24219 0.085938-0.41016 0.058594-0.59375-0.050782-0.35937-0.17578-0.74219-0.27344-1.0938-0.21875-0.80469-0.52734 0.42188-0.65625 0.73047-0.050781 0.12109-0.089844 0.25391-0.14062 0.37891-0.058593 0.14844 0.074219 0.27344 0.039063 0.45703-0.035156 0.16797-0.19922 0.26562-0.29297 0.39453-0.13672 0.19531-0.23438 0.44141-0.30859 0.68359-0.15625 0.5-0.21094 1.3711-0.5 1.7734-0.042969 0.058594-0.16016 0.023438-0.20312 0.074219-0.10156 0.12109 0.027344 0.25-0.17188 0.32812-0.15234 0.0625-0.53125 0.125-0.67578 0.023437-0.27734-0.19922 0.066406-0.44531 0.23828-0.65234 0.24219-0.28906 0.52344-0.55469 0.71094-0.89453 0.24609-0.45313 0.30078-0.96094 0.34766-1.4805 0.023437-0.25-0.20312-0.375-0.007813-0.67578 0.0625-0.097657 0.25391-0.082032 0.25391-0.18359 0-0.3125 0.007812-0.62891 0-0.9375-0.007813-0.37891-0.007813-1.0039-0.30859-1.2461-0.40234-0.32422-0.91406-0.40625-1.2969-0.75-0.38281-0.34766-0.73438-0.65625-0.96484-1.207-0.12109-0.28906-0.18359-0.57031-0.27734-0.86719-0.070312-0.21484-0.050781-0.14453-0.16406-0.26953-0.066406-0.078125-0.16797-0.12891-0.24219-0.21484-0.19531-0.22266-0.23047-0.44141-0.55859-0.34766-0.12891 0.035156-0.34375 0.32812-0.41406 0.14844-0.050781-0.11328-0.019531-0.21484 0.003906-0.33203 0.035157-0.17188-0.13672-0.23047-0.13281-0.39453 0.007812-0.28516 0.39062-0.58203 0.58984-0.62891 0.25-0.0625 0.52344 0.070312 0.79297 0.007812 0.21094-0.050781 0.39844-0.19141 0.60547-0.25 0.21484-0.066406 0.41016-0.089843 0.59375 0.066407 0.085938 0.074218 0.11719 0.19922 0.19141 0.27344 0.0625 0.0625 0.11719 0.042969 0.19141 0.10547 0.21484 0.1875 0.23047 0.46484-0.14062 0.37891 0.15625 0.78125 0.92188 2.875 1.7734 1.793 0.39844-0.50781 0.76172-1.0664 1.1367-1.5938 0.33203-0.46484 0.52734-0.98438 1.0898-0.89453 0.55859 0.085937 0.9375 0.54687 1.3711 0.92578 0.35156 0.30859 0.76563 0.37891 1.1367 0.63672 0.39844 0.27344 0.75 0.73437 0.88672 1.2578 0.19922 0.76172 0.085938 1.4961 0.43359 2.2188 0.20703 0.4375 0.50781 0.74219 0.76953 1.1055 0.14453 0.19531 0.23828 0.46484 0.19141 0.72656-0.03125 0.18359-0.14062 0.21484-0.14062 0.42578 0 0.36719 0.027344 0.73438 0.015625 1.1016-0.011719 0.32812-0.035156 0.64844-0.074219 0.97266-0.03125 0.28125-0.12891 0.35938-0.20703 0.56641-0.11328 0.30859-0.09375 0.44141-0.36719 0.5625-0.15234 0.066406-0.41797 0.20312-0.58203 0.19922-0.23828-0.015625-0.26953-0.25-0.089843-0.50391 0.11719-0.16406 0.32422-0.21484 0.45703-0.39453 0.38281-0.51562 0.54688-2.0625 0.22656-2.6094-0.13281-0.22656-0.28906-0.23047-0.30078-0.57422-0.011719-0.3125 0.066407-0.41797-0.16797-0.69922-0.74219-0.45703-0.79687-0.78125-1.0352-0.625-0.29688 0.19141-0.066406 1.2656 0 1.5625 0.11328 0.53906 0.55469 0.79297 0.26562 1.3398-0.21094 0.38672-0.30859 0.78906-0.44922 1.2422-0.12891 0.41016-0.12109 0.99219-0.32422 1.3359-0.039063 0.066406-0.10156 0.10156-0.14062 0.16406-0.027344 0.050781-0.066407 0.1875-0.085938 0.21484-0.085937 0.11719-0.10547 0.14844-0.24219 0.21094-0.24609 0.11328-0.54688 0.078125-0.80859 0.078125" fill="#fff" fill-rule="evenodd"/></svg>

<svg xmlns="http://www.w3.org/2000/svg" xmlns:xlink="http://www.w3.org/1999/xlink" width="36pt" height="36pt" version="1.1" viewBox="0 0 36 36"> <defs> <clipPath id="clip1"> <path d="M 20 2 L 31 2 L 31 13 L 20 13 Z M 20 2"/> </clipPath> <clipPath id="clip2"> <path d="M 20.515625 2.625 L 30.328125 12.4375 L 22.023438 12.4375 C 21.292969 12.4375 20.515625 11.660156 20.515625 10.929688 Z M 20.515625 2.625"/> </clipPath> <image id="image6" width="36" height="36" xlink:href="data:image/png;base64,iVBORw0KGgoAAAANSUhEUgAAACQAAAAkCAYAAADhAJiYAAAABmJLR0QA/wD/AP+gvaeTAAAAmklEQVRYhe3T0QqCQBBG4aOtYEoUvf9Lildltl00C4tkbBeTIP+BAUEYP1YW1Pcqh53B9kbgaVPcwQF0tAmGSrMZ6AKcDQXw+AUVHEAtcAUaewYYgYmC3+cBCkAPnDJQMcoDVNnebgEqQnmAclTz4d0I3P4JStc9AjXvk4qLWQV53LLeEOl05gw4A3dgcPiuUkoppZRSSqk99gLWvSJpuDnlsAAAAABJRU5ErkJggg=="/> </defs> <g> <path style="fill:rgb(30.980%,78.431%,80.784%)" d="M 7.347656 3.152344 C 6.675781 3.152344 6.042969 3.785156 6.042969 4.457031 L 6.042969 31.847656 C 6.042969 32.480469 6.714844 33.152344 7.347656 33.152344 L 28.21875 33.152344 C 28.851562 33.152344 29.523438 32.480469 29.523438 31.847656 L 29.523438 11.632812 L 21.042969 3.152344 Z M 7.347656 3.152344"/> <g clip-path="url(#clip1)"> <g clip-path="url(#clip2)"> <use xlink:href="#image6"/> </g> </g> <path style="fill:rgb(39.607%,81.176%,83.137%)" d="M 21.042969 3.152344 L 29.523438 11.632812 L 22.347656 11.632812 C 21.714844 11.632812 21.042969 10.960938 21.042969 10.328125 Z M 21.042969 3.152344"/> <path style="fill-rule:evenodd;fill:rgb(100.000%,100.000%,100.000%)" d="M 19.75 25.746094 C 19.375 25.695312 19.8125 25.320312 19.9375 25.242188 C 20.175781 25.101562 20.371094 24.9375 20.519531 24.667969 C 20.757812 24.234375 20.863281 23.664062 20.964844 23.164062 C 21.03125 22.828125 21.097656 22.632812 20.917969 22.347656 C 20.742188 22.0625 21.042969 21.828125 20.855469 21.527344 C 20.539062 21.023438 20.40625 20.355469 20.09375 19.855469 C 20.007812 19.714844 20.039062 19.582031 19.910156 19.570312 C 19.851562 19.5625 19.691406 19.707031 19.640625 19.75 C 19.484375 19.875 19.296875 19.933594 19.144531 20.054688 C 19.070312 20.117188 18.925781 20.070312 18.859375 20.128906 C 18.679688 20.300781 18.722656 20.832031 18.742188 21.101562 C 18.769531 21.488281 19.027344 21.609375 19.027344 21.980469 C 19.027344 22.429688 18.957031 22.738281 19.078125 23.195312 C 19.144531 23.460938 19.3125 23.761719 19.339844 24.03125 C 19.363281 24.242188 19.332031 24.238281 19.277344 24.4375 C 19.21875 24.679688 19.191406 24.894531 19 25 C 18.890625 25.0625 18.394531 25.089844 18.332031 24.941406 C 18.210938 24.652344 18.671875 24.554688 18.75 24.378906 C 18.917969 24 18.570312 23.023438 18.417969 22.695312 C 18.335938 22.515625 18.1875 22.375 18.125 22.195312 C 18.046875 21.953125 18.210938 21.785156 18.183594 21.601562 C 18.132812 21.242188 18.007812 20.859375 17.910156 20.507812 C 17.691406 19.703125 17.382812 20.929688 17.253906 21.238281 C 17.203125 21.359375 17.164062 21.492188 17.113281 21.617188 C 17.054688 21.765625 17.1875 21.890625 17.152344 22.074219 C 17.117188 22.242188 16.953125 22.339844 16.859375 22.46875 C 16.722656 22.664062 16.625 22.910156 16.550781 23.152344 C 16.394531 23.652344 16.339844 24.523438 16.050781 24.925781 C 16.007812 24.984375 15.890625 24.949219 15.847656 25 C 15.746094 25.121094 15.875 25.25 15.675781 25.328125 C 15.523438 25.390625 15.144531 25.453125 15 25.351562 C 14.722656 25.152344 15.066406 24.90625 15.238281 24.699219 C 15.480469 24.410156 15.761719 24.144531 15.949219 23.804688 C 16.195312 23.351562 16.25 22.84375 16.296875 22.324219 C 16.320312 22.074219 16.09375 21.949219 16.289062 21.648438 C 16.351562 21.550781 16.542969 21.566406 16.542969 21.464844 C 16.542969 21.152344 16.550781 20.835938 16.542969 20.527344 C 16.535156 20.148438 16.535156 19.523438 16.234375 19.28125 C 15.832031 18.957031 15.320312 18.875 14.9375 18.53125 C 14.554688 18.183594 14.203125 17.875 13.972656 17.324219 C 13.851562 17.035156 13.789062 16.753906 13.695312 16.457031 C 13.625 16.242188 13.644531 16.3125 13.53125 16.1875 C 13.464844 16.109375 13.363281 16.058594 13.289062 15.972656 C 13.09375 15.75 13.058594 15.53125 12.730469 15.625 C 12.601562 15.660156 12.386719 15.953125 12.316406 15.773438 C 12.265625 15.660156 12.296875 15.558594 12.320312 15.441406 C 12.355469 15.269531 12.183594 15.210938 12.1875 15.046875 C 12.195312 14.761719 12.578125 14.464844 12.777344 14.417969 C 13.027344 14.355469 13.300781 14.488281 13.570312 14.425781 C 13.78125 14.375 13.96875 14.234375 14.175781 14.175781 C 14.390625 14.109375 14.585938 14.085938 14.769531 14.242188 C 14.855469 14.316406 14.886719 14.441406 14.960938 14.515625 C 15.023438 14.578125 15.078125 14.558594 15.152344 14.621094 C 15.367188 14.808594 15.382812 15.085938 15.011719 15 C 15.167969 15.78125 15.933594 17.875 16.785156 16.792969 C 17.183594 16.285156 17.546875 15.726562 17.921875 15.199219 C 18.253906 14.734375 18.449219 14.214844 19.011719 14.304688 C 19.570312 14.390625 19.949219 14.851562 20.382812 15.230469 C 20.734375 15.539062 21.148438 15.609375 21.519531 15.867188 C 21.917969 16.140625 22.269531 16.601562 22.40625 17.125 C 22.605469 17.886719 22.492188 18.621094 22.839844 19.34375 C 23.046875 19.78125 23.347656 20.085938 23.609375 20.449219 C 23.753906 20.644531 23.847656 20.914062 23.800781 21.175781 C 23.769531 21.359375 23.660156 21.390625 23.660156 21.601562 C 23.660156 21.96875 23.6875 22.335938 23.675781 22.703125 C 23.664062 23.03125 23.640625 23.351562 23.601562 23.675781 C 23.570312 23.957031 23.472656 24.035156 23.394531 24.242188 C 23.28125 24.550781 23.300781 24.683594 23.027344 24.804688 C 22.875 24.871094 22.609375 25.007812 22.445312 25.003906 C 22.207031 24.988281 22.175781 24.753906 22.355469 24.5 C 22.472656 24.335938 22.679688 24.285156 22.8125 24.105469 C 23.195312 23.589844 23.359375 22.042969 23.039062 21.496094 C 22.90625 21.269531 22.75 21.265625 22.738281 20.921875 C 22.726562 20.609375 22.804688 20.503906 22.570312 20.222656 C 21.828125 19.765625 21.773438 19.441406 21.535156 19.597656 C 21.238281 19.789062 21.46875 20.863281 21.535156 21.160156 C 21.648438 21.699219 22.089844 21.953125 21.800781 22.5 C 21.589844 22.886719 21.492188 23.289062 21.351562 23.742188 C 21.222656 24.152344 21.230469 24.734375 21.027344 25.078125 C 20.988281 25.144531 20.925781 25.179688 20.886719 25.242188 C 20.859375 25.292969 20.820312 25.429688 20.800781 25.457031 C 20.714844 25.574219 20.695312 25.605469 20.558594 25.667969 C 20.3125 25.78125 20.011719 25.746094 19.75 25.746094"/> </g> </svg>
